tools/download-figma-icons/icons/solid/moving-truck.svg

<svg width="24" height="24" viewBox="0 0 24 24" fill="none" xmlns="http://www.w3.org/2000/svg">
<path fill-rule="evenodd" clip-rule="evenodd" d="M20.4823 10.755H15.5173V7.04256H19.0281C19.1623 7.04256 19.2898 7.12506 19.3423 7.25256L20.6855 10.44C20.7523 10.59 20.6398 10.755 20.4823 10.755ZM18.0906 21.0374C17.2723 21.0374 16.6123 20.3774 16.6123 19.5674C16.6123 18.7499 17.2723 18.0899 18.0906 18.0899C18.9073 18.0899 19.5605 18.7499 19.5605 19.5674C19.5605 20.3774 18.9073 21.0374 18.0906 21.0374ZM12.5474 9.97503C12.4049 10.1168 12.2099 10.1925 12.0224 10.1925C11.8274 10.1925 11.6324 10.1168 11.4899 9.97503L11.2799 9.76503V12.945C11.2799 13.3575 10.9424 13.695 10.5299 13.695H4.62745C4.20746 13.695 3.87746 13.3575 3.87746 12.945V9.76503L3.66746 9.97503C3.36746 10.2675 2.89497 10.2675 2.60247 9.97503C2.31072 9.68178 2.31072 9.20928 2.60247 8.91754L4.09496 7.42505L7.04243 4.47008C7.34242 4.17683 7.81492 4.17683 8.10742 4.47008L11.0399 7.40255C11.0549 7.41755 11.0699 7.4318 11.0849 7.44755L12.5474 8.91754C12.8406 9.20928 12.8406 9.68178 12.5474 9.97503ZM5.91746 21.0374C5.09997 21.0374 4.43997 20.3774 4.43997 19.5674C4.43997 18.7499 5.09997 18.0899 5.91746 18.0899C6.72745 18.0899 7.38744 18.7499 7.38744 19.5674C7.38744 20.3774 6.72745 21.0374 5.91746 21.0374ZM23.2948 11.0025C23.2648 10.9725 23.2348 10.95 23.1973 10.9268L23.1448 10.89L22.3273 10.32C22.2755 10.2825 22.2298 10.23 22.1998 10.17L20.7223 6.67505C20.4298 5.98506 19.7623 5.54257 19.0123 5.54257H15.5173V3.35259C15.5173 2.3326 14.6856 1.50011 13.6649 1.50011H1.85998C0.832492 1.50011 0.00749992 2.3326 0.00749992 3.35259V13.6725H0V18.4574C0 19.4774 0.832492 20.3099 1.85998 20.3099H3.03747C3.36747 21.5842 4.52995 22.5374 5.90994 22.5374C7.29743 22.5374 8.45991 21.5842 8.78241 20.3099H15.2173C15.5398 21.5842 16.7023 22.5374 18.0906 22.5374C19.4698 22.5374 20.6323 21.5842 20.963 20.3099H22.1473C23.1673 20.3099 23.9998 19.4774 23.9998 18.4574V12.45C23.9998 11.88 23.7373 11.3475 23.2948 11.0025Z" fill="black"/>
</svg>

<svg xmlns="http://www.w3.org/2000/svg" width="24" height="24" fill="none" viewBox="0 0 24 24"><path fill="currentColor" fill-rule="evenodd" d="M20.482 10.755h-4.965V7.043h3.511c.134 0 .262.082.314.21l1.344 3.187a.224.224 0 0 1-.204.315m-2.391 10.282a1.474 1.474 0 1 1-.009-2.948 1.474 1.474 0 0 1 .009 2.948M12.547 9.975a.754.754 0 0 1-1.057 0l-.21-.21v3.18c0 .412-.338.75-.75.75H4.627a.747.747 0 0 1-.75-.75v-3.18l-.21.21a.756.756 0 0 1-1.065 0 .75.75 0 0 1 0-1.057l1.493-1.493L7.042 4.47a.755.755 0 0 1 1.065 0l2.933 2.933.045.045 1.462 1.47a.746.746 0 0 1 0 1.057m-6.63 11.062a1.474 1.474 0 1 1-.007-2.948 1.474 1.474 0 0 1 .007 2.948m17.378-10.034a.5.5 0 0 0-.098-.076l-.052-.037-.818-.57a.4.4 0 0 1-.127-.15l-1.478-3.495a1.85 1.85 0 0 0-1.71-1.132h-3.495v-2.19c0-1.02-.831-1.853-1.852-1.853H1.86A1.85 1.85 0 0 0 .007 3.353v10.32H0v4.784c0 1.02.832 1.853 1.86 1.853h1.177a2.965 2.965 0 0 0 5.745 0h6.435a2.965 2.965 0 0 0 5.746 0h1.184c1.02 0 1.853-.833 1.853-1.853V12.45c0-.57-.263-1.102-.705-1.447" clip-rule="evenodd"/></svg>
